X: 29901
T: O'Neill's March
R: polka
M: 2/4
K: Gmajor
B2g2 f2a2|e2g2 gfed|B2g2 f2a2|e2g2 gfed:|
e2de fedB|e2e2 fedB|e2de fedB|e2e2 fedB|
|:A3B G3B|A2e2 edBG|A3B G3B|1 A2e2 edBG:|2 A2e2 edBA||
|:e2A2 A2Bd|eged B2d2|e2A2 AcBA|G2GA BGBd|
e2A2 A2Bd|eged B2d2|edef g2B2|A4 A4:|
|:e2a2 a2ga|b2ba g2gf|edBd g2ge|dcBA GABG|
e2a2 a2ga|b2ba g2ge|d2B2 g2B2|A4 A4:|

